icons/printer.svg

<svg width="30" height="26" viewBox="0 0 30 26" fill="none" xmlns="http://www.w3.org/2000/svg">
<path d="M24 0H6V5.77778H24M25.5 13C25.1022 13 24.7206 12.8478 24.4393 12.5769C24.158 12.306 24 11.9386 24 11.5556C24 11.1725 24.158 10.8051 24.4393 10.5342C24.7206 10.2633 25.1022 10.1111 25.5 10.1111C25.8978 10.1111 26.2794 10.2633 26.5607 10.5342C26.842 10.8051 27 11.1725 27 11.5556C27 11.9386 26.842 12.306 26.5607 12.5769C26.2794 12.8478 25.8978 13 25.5 13ZM21 23.1111H9V15.8889H21M25.5 7.22222H4.5C3.30653 7.22222 2.16193 7.67877 1.31802 8.49143C0.474106 9.30408 0 10.4063 0 11.5556V20.2222H6V26H24V20.2222H30V11.5556C30 10.4063 29.5259 9.30408 28.682 8.49143C27.8381 7.67877 26.6935 7.22222 25.5 7.22222Z" fill="black"/>
</svg>

<?xml version="1.0" encoding="UTF-8"?>
<svg id="Layer_1" xmlns="http://www.w3.org/2000/svg" version="1.1" viewBox="0 0 30 26">
  <!-- Generator: Adobe Illustrator 30.3.0, SVG Export Plug-In . SVG Version: 2.1.3 Build 182)  -->
  <defs>
    <style>
      .st0 {
        fill: #fff;
      }
    </style>
  </defs>
  <path class="st0" d="M24,0H6v5.78h18M25.5,13c-.4,0-.78-.15-1.06-.42-.28-.27-.44-.64-.44-1.02s.16-.75.44-1.02c.28-.27.66-.42,1.06-.42s.78.15,1.06.42c.28.27.44.64.44,1.02s-.16.75-.44,1.02c-.28.27-.66.42-1.06.42ZM21,23.11h-12v-7.22h12M25.5,7.22H4.5c-1.19,0-2.34.46-3.18,1.27-.84.81-1.32,1.91-1.32,3.06v8.67h6v5.78h18v-5.78h6v-8.67c0-1.15-.47-2.25-1.32-3.06-.84-.81-1.99-1.27-3.18-1.27Z"/>
</svg>
